_includes/icons/ios-compass.svg

<svg fill="#666" height="50" viewBox="0 0 50 50" width="50" xmlns="http://www.w3.org/2000/svg"><path d="m24.984375 1.9863281a1.0001 1.0001 0 0 0 -.169922.0175781c-12.539571.0999588-22.7053402 10.2624478-22.8105468 22.8007818a1.0001 1.0001 0 0 0 0 .378906c.0989143 12.540472 10.2617938 22.707288 22.8007818 22.8125a1.0001 1.0001 0 0 0 .378906 0c12.540472-.098914 22.707288-10.261794 22.8125-22.800782a1.0001 1.0001 0 0 0 0-.378906c-.098945-12.544396-10.268104-22.7135546-22.8125-22.8124998a1.0001 1.0001 0 0 0 -.199219-.0175781zm-.984375 2.0390625v.9746094a1.0001 1.0001 0 1 0 2 0v-.9746094c10.812778.5054292 19.46918 9.1618314 19.974609 19.9746094h-.974609a1.0001 1.0001 0 1 0 0 2h.974609c-.505429 10.812778-9.161831 19.46918-19.974609 19.974609v-.974609a1.0001 1.0001 0 0 0 -1.015625-1.013672 1.0001 1.0001 0 0 0 -.984375 1.013672v.974609c-10.812778-.505429-19.4691802-9.161831-19.9746094-19.974609h.9746094a1.0001 1.0001 0 1 0 0-2h-.9746094c.5054292-10.812778 9.1618314-19.4691802 19.9746094-19.9746094zm12.964844 7.9746094a1.0001 1.0001 0 0 0 -.525391.171875l-14.322265 9.675781a1.0001 1.0001 0 0 0 -.269532.269532l-9.675781 14.322265a1.0001 1.0001 0 0 0 1.388672 1.388672l14.324219-9.675781a1.0001 1.0001 0 0 0 .269531-.269532l9.673828-14.322265a1.0001 1.0001 0 0 0 -.863281-1.560547zm-13.56836 11.396484 3.207032 3.207032-9.884766 6.677734z"/></svg>

<svg xmlns="http://www.w3.org/2000/svg" viewBox="0 0 50 50" width="50" height="50" fill="#666"><path style="line-height:normal;text-indent:0;text-align:start;text-decoration-line:none;text-decoration-style:solid;text-decoration-color:#000;text-transform:none;block-progression:tb;isolation:auto;mix-blend-mode:normal" d="M 24.984375 1.9863281 A 1.0001 1.0001 0 0 0 24.814453 2.0039062 C 12.274882 2.103865 2.1091128 12.266354 2.0039062 24.804688 A 1.0001 1.0001 0 0 0 2.0039062 25.183594 C 2.1028205 37.724066 12.2657 47.890882 24.804688 47.996094 A 1.0001 1.0001 0 0 0 25.183594 47.996094 C 37.724066 47.89718 47.890882 37.7343 47.996094 25.195312 A 1.0001 1.0001 0 0 0 47.996094 24.816406 C 47.897149 12.27201 37.72799 2.1028514 25.183594 2.0039062 A 1.0001 1.0001 0 0 0 24.984375 1.9863281 z M 24 4.0253906 L 24 5 A 1.0001 1.0001 0 1 0 26 5 L 26 4.0253906 C 36.812778 4.5308198 45.46918 13.187222 45.974609 24 L 45 24 A 1.0001 1.0001 0 1 0 45 26 L 45.974609 26 C 45.46918 36.812778 36.812778 45.46918 26 45.974609 L 26 45 A 1.0001 1.0001 0 0 0 24.984375 43.986328 A 1.0001 1.0001 0 0 0 24 45 L 24 45.974609 C 13.187222 45.46918 4.5308198 36.812778 4.0253906 26 L 5 26 A 1.0001 1.0001 0 1 0 5 24 L 4.0253906 24 C 4.5308198 13.187222 13.187222 4.5308198 24 4.0253906 z M 36.964844 12 A 1.0001 1.0001 0 0 0 36.439453 12.171875 L 22.117188 21.847656 A 1.0001 1.0001 0 0 0 21.847656 22.117188 L 12.171875 36.439453 A 1.0001 1.0001 0 0 0 13.560547 37.828125 L 27.884766 28.152344 A 1.0001 1.0001 0 0 0 28.154297 27.882812 L 37.828125 13.560547 A 1.0001 1.0001 0 0 0 36.964844 12 z M 23.396484 23.396484 L 26.603516 26.603516 L 16.71875 33.28125 L 23.396484 23.396484 z"/></svg>
